public/frontend/images/icons/nav/contact.svg

<svg width="24" height="24" viewBox="0 0 24 24" fill="none" xmlns="http://www.w3.org/2000/svg">
<path fill-rule="evenodd" clip-rule="evenodd" d="M12 3C10.5937 3 9.2995 3.05598 8.14453 3.14113C6.41589 3.26859 5.80434 3.32966 5.0751 3.73C4.42984 4.08423 3.66741 4.90494 3.36159 5.5745C3.01922 6.32408 3.00002 7.07231 3.00002 9.13826V10.8156C3.00002 11.9615 3.00437 12.3963 3.06904 12.7399C3.37386 14.3594 4.64066 15.6262 6.26012 15.931C6.60374 15.9957 7.03847 16 8.18442 16C8.1948 16 8.20546 16 8.21637 16C8.33199 15.9998 8.47571 15.9996 8.61593 16.019C9.21331 16.1021 9.74133 16.4502 10.053 16.9666C10.1261 17.0878 10.1825 17.22 10.2279 17.3264C10.2322 17.3364 10.2364 17.3462 10.2404 17.3557L10.6994 18.4267C11.0609 19.2701 11.3055 19.8382 11.518 20.2317C11.6905 20.5511 11.7828 20.6364 11.794 20.6477C11.9249 20.7069 12.0751 20.7069 12.2061 20.6477C12.2172 20.6364 12.3095 20.5511 12.482 20.2317C12.6946 19.8382 12.9392 19.2701 13.3006 18.4267L13.7596 17.3557C13.7637 17.3462 13.7679 17.3364 13.7721 17.3264C13.8175 17.22 13.8739 17.0878 13.9471 16.9666C14.2587 16.4502 14.7867 16.1021 15.3841 16.019C15.5243 15.9996 15.668 15.9998 15.7837 16C15.7946 16 15.8052 16 15.8156 16C16.9616 16 17.3963 15.9957 17.7399 15.931C19.3594 15.6262 20.6262 14.3594 20.931 12.7399C20.9957 12.3963 21 11.9615 21 10.8156V9.13826C21 7.07231 20.9808 6.32408 20.6384 5.5745C20.3326 4.90494 19.5702 4.08423 18.9249 3.73C18.1957 3.32966 17.5841 3.26859 15.8555 3.14113C14.7005 3.05598 13.4064 3 12 3ZM7.99746 1.14655C9.19742 1.05807 10.5408 1 12 1C13.4593 1 14.8026 1.05807 16.0026 1.14655C16.0472 1.14984 16.0913 1.15308 16.1351 1.1563C17.6971 1.27104 18.7416 1.34777 19.8874 1.97681C20.9101 2.53823 21.973 3.68239 22.4577 4.74356C23.001 5.93322 23.0007 7.13737 23.0001 8.95396C23 9.0147 23 9.07613 23 9.13826V10.8156C23 10.8555 23 10.8949 23 10.9337C23.0002 11.921 23.0003 12.5583 22.8965 13.1098C22.4392 15.539 20.5391 17.4392 18.1099 17.8965C17.5583 18.0003 16.9211 18.0002 15.9337 18C15.8949 18 15.8555 18 15.8156 18C15.7355 18 15.6941 18.0001 15.6638 18.0009C15.6625 18.0009 15.6612 18.0009 15.66 18.001C15.6596 18.002 15.659 18.0032 15.6585 18.0044C15.6458 18.0319 15.6294 18.07 15.5979 18.1436L15.1192 19.2604C14.7825 20.0462 14.5027 20.6992 14.2417 21.1823C13.9898 21.6486 13.6509 22.1678 13.098 22.4381C12.4052 22.7768 11.5948 22.7768 10.902 22.4381C10.3491 22.1678 10.0103 21.6486 9.75836 21.1823C9.49738 20.6992 9.21753 20.0462 8.88079 19.2604L8.40215 18.1436C8.3706 18.07 8.35421 18.0319 8.34157 18.0044C8.34101 18.0032 8.34048 18.002 8.33998 18.001C8.33881 18.0009 8.33755 18.0009 8.33621 18.0009C8.30594 18.0001 8.26451 18 8.18442 18C8.14451 18 8.10515 18 8.06633 18C7.07897 18.0002 6.44169 18.0003 5.89017 17.8965C3.46098 17.4392 1.56079 15.539 1.10356 13.1098C0.999748 12.5583 0.999849 11.921 1.00001 10.9337C1.00001 10.8949 1.00002 10.8555 1.00002 10.8156V9.13826C1.00002 9.07613 0.999998 9.0147 0.999978 8.95396C0.999383 7.13737 0.998989 5.93322 1.54238 4.74356C2.02707 3.68239 3.08998 2.53823 4.11264 1.97681C5.25848 1.34777 6.30294 1.27104 7.86493 1.1563C7.9087 1.15308 7.95287 1.14984 7.99746 1.14655Z" fill="url(#paint0_linear_103_132)"/>
<defs>
<linearGradient id="paint0_linear_103_132" x1="12" y1="1" x2="12" y2="22.6921" gradientUnits="userSpaceOnUse">
<stop offset="0.171875" stop-color="white"/>
<stop offset="0.520833" stop-color="#F9E2E2"/>
<stop offset="0.84375" stop-color="white"/>
</linearGradient>
</defs>
</svg>

<svg xmlns="http://www.w3.org/2000/svg" width="24" height="24" fill="none"><path fill="url(#a)" fill-rule="evenodd" d="M12 3c-1.406 0-2.7.056-3.855.141-1.73.128-2.34.189-3.07.589-.645.354-1.408 1.175-1.713 1.844C3.019 6.324 3 7.072 3 9.139v1.678c0 1.145.004 1.58.069 1.924A4 4 0 0 0 6.26 15.93c.344.065.778.069 1.924.069h.032c.116 0 .26 0 .4.019a2 2 0 0 1 1.437.948c.073.12.13.253.175.36l.012.029.46 1.07c.36.844.606 1.412.818 1.806.172.32.265.404.276.416a.5.5 0 0 0 .412 0c.011-.012.104-.097.276-.416.213-.394.457-.962.819-1.805l.459-1.071.012-.03c.046-.106.102-.238.175-.36a2 2 0 0 1 1.437-.947c.14-.02.284-.02.4-.019h.032c1.146 0 1.58-.004 1.924-.069a4 4 0 0 0 3.191-3.191c.065-.344.069-.779.069-1.924V9.138c0-2.066-.02-2.814-.362-3.564-.305-.67-1.068-1.49-1.713-1.844-.73-.4-1.34-.461-3.07-.589A52.516 52.516 0 0 0 12 3ZM7.997 1.147a54.51 54.51 0 0 1 8.006 0l.132.01c1.562.114 2.607.19 3.752.82 1.023.561 2.086 1.705 2.57 2.767.544 1.19.544 2.393.543 4.21v1.98c0 .987 0 1.624-.104 2.176a6 6 0 0 1-4.786 4.787C17.558 18 16.92 18 15.934 18h-.27l-.004.001-.002.003-.06.14-.479 1.116c-.336.786-.616 1.44-.877 1.922-.252.467-.591.986-1.144 1.256a2.5 2.5 0 0 1-2.196 0c-.553-.27-.892-.79-1.144-1.256-.26-.483-.54-1.136-.877-1.922l-.479-1.116a6.828 6.828 0 0 0-.06-.14l-.002-.003h-.004L8.184 18h-.118c-.987 0-1.624 0-2.176-.104a6 6 0 0 1-4.786-4.786C1 12.558 1 11.92 1 10.934V8.954c0-1.817-.001-3.02.542-4.21.485-1.062 1.548-2.206 2.57-2.767 1.146-.63 2.19-.706 3.753-.82l.132-.01Z" clip-rule="evenodd"/><defs><linearGradient id="a" x1="12" x2="12" y1="1" y2="22.692" gradientUnits="userSpaceOnUse"><stop offset=".172" stop-color="#fff"/><stop offset=".521" stop-color="#F9E2E2"/><stop offset=".844" stop-color="#fff"/></linearGradient></defs></svg>
